svgs/solid/book-blank.svg

<svg xmlns="http://www.w3.org/2000/svg" viewBox="0 0 448 512"><!-- Font Awesome Pro 6.0.0-alpha2 by @fontawesome - https://fontawesome.com License - https://fontawesome.com/license (Commercial License) --><path d="M448 360V24C448 10.744 437.254 0 424 0H96C42.98 0 0 42.98 0 96V416C0 469.02 42.98 512 96 512H424C437.254 512 448 501.254 448 488V472C448 461.582 441.275 452.936 432 449.615V382.385C441.275 379.064 448 370.416 448 360ZM64 416C64 398.326 78.326 384 96 384H384V448H96C78.326 448 64 433.672 64 416Z"/></svg>

<svg xmlns="http://www.w3.org/2000/svg" viewBox="0 0 448 512"><!--! Font Awesome Pro 6.0.0-alpha3 by @fontawesome - https://fontawesome.com License - https://fontawesome.com/license (Commercial License) --><path d="M448 360V24C448 10.74 437.3 0 424 0H96C42.98 0 0 42.98 0 96v320c0 53.02 42.98 96 96 96h328c13.25 0 24-10.75 24-24v-16c0-10.42-6.725-19.06-16-22.38v-67.23C441.3 379.1 448 370.4 448 360zM64 416c0-17.67 14.33-32 32-32h288v64H96C78.33 448 64 433.7 64 416z"/></svg>
